X: 43214
T: With Biddy By My Side
R: hornpipe
M: 4/4
K: Aminor
A,B,CD EFDF|EDCE DG,B,G,|A,2A,D E2DF|1 ED (3EFG A2A:|2 ED (3EFG A2AB||
c2Bc AGE^F|GE^FD EGAB|cABG AGED|ED (3E^FG A2AB|
c3B AGE^F|GE^FD EGcd|ecdB cBAG|EDEG A2zB,||
P: variation A part
A,3D E2DF|E2CE D2B,G,|A,3D E2DF|ED (3EFG AA,B,G,|
A,3D E2DF|E2CE D2B,G,|A,3D E2DF|ED (3EFG A2AB:|

